storage/app/icons/phosphoricons/bold/solar-panel-bold.svg

<svg xmlns="http://www.w3.org/2000/svg" fill="currentColor" viewBox="0 0 256 256"><path d="M32 100a12 12 0 0 1 12-12h8a12 12 0 0 1 0 24h-8a12 12 0 0 1-12-12m96-64a12 12 0 0 0 12-12v-8a12 12 0 0 0-24 0v8a12 12 0 0 0 12 12M65.77 54.74a12 12 0 1 0 17-17l-5.66-5.65a12 12 0 0 0-17 17Zm116 3.52a12 12 0 0 0 8.49-3.52l5.65-5.65a12 12 0 0 0-17-17l-5.66 5.65a12 12 0 0 0 8.49 20.49ZM192 100a12 12 0 0 0 12 12h8a12 12 0 0 0 0-24h-8a12 12 0 0 0-12 12M88 112a12 12 0 0 0 12-12 28 28 0 0 1 56 0 12 12 0 0 0 24 0 52 52 0 0 0-104 0 12 12 0 0 0 12 12m154.36 110.05A12 12 0 0 1 232 228H24a12 12 0 0 1-10.45-17.9l43-76A12 12 0 0 1 67 128h122a12 12 0 0 1 10.45 6.1l43 76a12 12 0 0 1-.09 11.95M182 152h-42v12h48.82Zm-108 0-6.78 12H116v-12Zm-29.43 52H116v-16H53.61Zm166.86 0-9-16H140v16Z"/></svg>

<svg xmlns="http://www.w3.org/2000/svg" viewBox="0 0 256 256" fill="currentColor"><path d="M32,100A12,12,0,0,1,44,88h8a12,12,0,0,1,0,24H44A12,12,0,0,1,32,100Zm96-64a12,12,0,0,0,12-12V16a12,12,0,0,0-24,0v8A12,12,0,0,0,128,36ZM65.77,54.74a12,12,0,1,0,17-17l-5.66-5.65a12,12,0,0,0-17,17Zm116,3.52a12,12,0,0,0,8.49-3.52l5.65-5.65a12,12,0,0,0-17-17l-5.66,5.65a12,12,0,0,0,8.49,20.49ZM192,100a12,12,0,0,0,12,12h8a12,12,0,0,0,0-24h-8A12,12,0,0,0,192,100ZM88,112a12,12,0,0,0,12-12,28,28,0,0,1,56,0,12,12,0,0,0,24,0,52,52,0,0,0-104,0A12,12,0,0,0,88,112ZM242.36,222.05A12,12,0,0,1,232,228H24a12,12,0,0,1-10.45-17.9l43-76A12,12,0,0,1,67,128H189a12,12,0,0,1,10.45,6.1l43,76A12,12,0,0,1,242.36,222.05ZM182,152H140v12h48.82ZM74,152l-6.78,12H116V152ZM44.57,204H116V188H53.61Zm166.86,0-9-16H140v16Z"/></svg>
